X: 31360
T: Paddy O'Neil
R: jig
M: 6/8
K: Gmajor
G|DGG {d}GAG|EAA {d}ABc|BdB cAc|BAG FEF|
DGG {d}GAG|EAA {d}ABc|BdB cAc|BGF G2E|
D2G {d}GAG|EAA {d}ABc|BdB "roll"~c3|BAG "roll"~F3|
DGG {d}GAG|EAA {d}ABc|(3Bcd B cAc|BGF G2B|
d^cd g2 d|BGF G2F|EAA {d}ABc|BAG (3FGF B|
d^cd (3gag d|BGB BcA|BdB cAc|BGF G2B|
d^cd g2 d|BGF G2F|EAA {d}ABc|BAG "roll"~F3|
d^cd (3gag d|BGB BcA|(3Bcd B cAc|BGF G3||

